img/manaSymbols/a.svg

﻿<?xml version="1.0" encoding="utf-8"?>
<svg width="32" height="32" viewBox="0 0 32 32" version="1.1" xmlns="http://www.w3.org/2000/svg" xml:space="preserve" style="fill-rule: evenodd; clip-rule: evenodd; stroke-linejoin: round; stroke-miterlimit: 2;" preserveAspectRatio="xMidYMid meet" zoomAndPan="magnify" contentScriptType="application/ecmascript" contentStyleType="text/css">
  <path d="M28.544.04c.053.062.035.03.06.09.486 1.333.8 2.776 2.167 3.918.25.284-.27.71-.453.875-.26.234-.613.502-.88.7-.673.504-1.37.98-2.017 1.516.333 1.56-.005 3.175.39 4.73 1.96 3.028 4.724 8.44 1.777 11.704-.994.964-2.366 1.305-3.72 1.245a4.66 4.66 0 0 0 .793-2.235c0-1.203-.584-2.858-1.227-3.847a44.85 44.85 0 0 0-5.14-6.47c-1.814-1.79-3.744-3.38-5.798-4.894-1.39-1.024-4.174-2.49-5.97-2.11-.636.177-1.193.52-1.752.854-.12-1.582.143-2.93 1.226-4.13 3.44-3.054 9.012.016 12.14 2.064.762.317 1.63.164 2.428.14.782 0 1.62-.036 2.36.257 1.137-1.18 1.914-2.644 2.944-3.907.14-.17.345-.465.583-.522.03-.006.06.013.088.02zM11.03 9.882c.404.476 1.15 1.475.4 1.988-6.908 3.557-8.85 12.975-8.85 12.975S-.854 16.547 7.686 9.57c1.163-.95 2.31-.675 3.342.313zm8.013 3.622c-1.71-1.686-3.45-3.336-5.394-4.753-1.317-.96-3.605-2.59-5.336-2.192C4.488 7.814 1.164 13.1.17 17.88c-.52 2.497.263 5.714.743 8.31.49 2.66.376 4.517.376 4.517s1.342-.3 3.887.125c2.597.435 6.42 1.59 8.75.972 4.61-1.223 11.068-5.3 11.35-9.03.022-1.156-.73-2.365-1.328-3.304-1.39-2.175-3.133-4.103-4.91-5.965h.003z" style="fill-rule: nonzero;" transform="matrix(1,0,0,1,0.5,0)" />
</svg>

<?xml version="1.0" encoding="UTF-8" standalone="no"?>
<!DOCTYPE svg PUBLIC "-//W3C//DTD SVG 1.1//EN" "http://www.w3.org/Graphics/SVG/1.1/DTD/svg11.dtd">
<svg width="32" height="32" viewBox="0 0 32 32" version="1.1" xmlns="http://www.w3.org/2000/svg" xmlns:xlink="http://www.w3.org/1999/xlink" xml:space="preserve" xmlns:serif="http://www.serif.com/" style="fill-rule:evenodd;clip-rule:evenodd;stroke-linejoin:round;stroke-miterlimit:2;">
    <g transform="matrix(1,0,0,1,0.5,0)">
        <path d="M28.544,0.039C28.597,0.102 28.579,0.07 28.605,0.13C29.09,1.463 29.403,2.906 30.771,4.048C31.021,4.332 30.5,4.758 30.317,4.923C30.056,5.157 29.704,5.425 29.438,5.624C28.764,6.127 28.068,6.602 27.42,7.139C27.753,8.7 27.415,10.315 27.81,11.87C29.769,14.898 32.534,20.311 29.587,23.574C28.593,24.538 27.221,24.879 25.867,24.819C26.32,24.152 26.593,23.386 26.66,22.585C26.66,21.382 26.076,19.727 25.433,18.738C23.944,16.445 22.179,14.242 20.294,12.268C18.479,10.479 16.549,8.887 14.495,7.374C13.105,6.35 10.321,4.884 8.524,5.265C7.889,5.441 7.332,5.783 6.773,6.118C6.653,4.536 6.916,3.187 7.999,1.987C11.44,-1.066 17.012,2.004 20.141,4.052C20.902,4.369 21.771,4.216 22.568,4.193C23.35,4.193 24.187,4.156 24.929,4.449C26.065,3.269 26.842,1.806 27.872,0.543C28.011,0.372 28.217,0.078 28.455,0.021C28.484,0.014 28.514,0.033 28.543,0.04L28.544,0.039ZM11.029,9.883C11.434,10.359 12.179,11.358 11.431,11.871C4.522,15.427 2.579,24.845 2.579,24.845C2.579,24.845 -0.853,16.547 7.687,9.57C8.85,8.62 9.996,8.895 11.029,9.883ZM19.043,13.505C17.332,11.819 15.594,10.169 13.649,8.752C12.333,7.793 10.045,6.163 8.314,6.56C4.488,7.814 1.165,13.1 0.171,17.879C-0.349,20.377 0.433,23.594 0.913,26.191C1.404,28.851 1.289,30.707 1.289,30.707C1.289,30.707 2.632,30.407 5.177,30.832C7.774,31.267 11.598,32.422 13.926,31.804C18.536,30.581 24.995,26.504 25.278,22.773C25.299,21.618 24.548,20.409 23.949,19.47C22.559,17.295 20.817,15.367 19.041,13.505L19.043,13.505Z" style="fill-rule:nonzero;"/>
    </g>
</svg>
